!!!COM: Saint-Saens, Camille
!!!CNT: Francais
!!!TXO: Francais
!!!OTL: Tristesse
!!!LYR: F. Lemaire
!!!ENC: Jacob Pegg
!!!YOR: Huit melodies : for high voice
!!!YOR: Huntsville, TX: Recital Publications, 1982 
!!!ODT: 1868/
!!NB: Vocal melody and text only encoded.
!!NB: First instance of melodic material only encoded.
**kern	**silbe
*clef G2	*
*k[f#]	*
*M4/4	*
!!created: 3/1/04 11:31 PM
!!proofed and posted: 3/2/04 1:03 AM
!!edit time: 22 min.
=1	=1
2r	.
4r	.
{8e	{De
8f#	tris-
=2	=2
8g	-tesse
8f#	a-
2e	-me\re
8f#	et
8g	pro-
=3	=3
2b	-fon-
8g}	-de}
8r	.
8r	.
{8e	{Mon
=4	=4
8g	a^-
8f#	-me est
4.e	pri-
8e	-se
8f#	sans
8g	rai-
=5	=5
2b}	-son;}
4r	.
{4b	{Je
=6	=6
4.cc	cherche
8g	en
8f#	vain
8g	sur
8a	quoi
8cc	se
=7	=7
2b	fon-
4b}	-de}
8r	.
{8b	{Mon
=8	=8
8b	noir
8e	cha-
4.e	-grin
8a	hors
8g	de
8a	sai-
=9	=9
2f}	-son.}
2r	.
=10	=10
1r	.
!!mm 11-22 repeat material
=23	=23
8r	.
{8e	{Dans
8g#	les
8b	che-
4ee	-mins
(12dd	qu'el-
12cc	-le
12b)	se
=24	=24
4b	frai-
4cc}	-e}
4r	.
{4a	{La
=25	=25
4a	nuit
8g	qui
8a	l'en-
4g	-tou-
8fn	-re
8g	l'ef-
=26	=26
4fn	-frai-
4e}	-e,}
2r	.
=27	=27
8r	.
{8e	{Et
8g#	cha-
8a	-que
2a}	pas}
=28	=28
8r	.
{8a	{est
8dd#	un
8ee	ef-
2ee}	-fort!}
=29	=29
4r	.
{4ee	{He/-
[2gg	-las!
=30	=30
4gg]	|
8ff#	Pour
8ee	ce
4dd	corps
8cc	qu'el-
8b	-le ha-
=31	=31
4b	-bi-
4a}	-te,}
4r	.
{8a	{El-
8a	-le
=32	=32
4.ee	va
8dd	tou-
(8cc	-jours
8b)	|
8a	as-
8g	-sez
=33	=33
4g	vi-
4f#}	-te,}
2r	.
=34	=34
{2fn	{Car
4a	cha-
4cc	-que
=35	=35
2.e}	pas}
4r	.
=36	=36
{2c	{me\-
4.d#	-ne a\
8d#	la
=37	=37
1e}	mort!}
*-	*-
